X:1
T:Title
%%score { ( 1 3 ) | 2 }
L:1/8
Q:1/4=100
M:4/4
K:C
V:1 treble nm="Grand Piano"
V:3 treble 
V:2 bass 
V:1
 [Ec]2 [EG][FA] [EG]2 [EG]2 | AcBd [Ec]2 [EG]2 | [FA]2 [GB]2 [Gc]2 [Ge]2 | [Gd]2 [^Fc]2 [GB]4 | %4
w: W.~H.~Doane * * * *||||
 [Ec]2 [EG][FA] [EG]2 [EG]2 | AcBd [Ge]2 [Gc]2 | [Fd]2 [Fd]2 c2 [DB]2 | [Ec]6 z2 | [Fd]4 z4 | %9
w: |||||
 [Ge]4 z4 | dd d>c BBAB | [EGc][EG] [EG]>[FA] [EG]4 | Ac c2 c4 | [EG][Ge] [Ge]2 [Ge]4 | %14
w: |||||
 [Fd]2 [Fd]2 c2 [DB]2 | [Ec]6 z2 |] %16
w: ||
V:2
 [C,G,]2 [C,C][C,C] [C,C]2 [C,C]2 | [F,CF][F,A,F][G,F][G,B,F][K:bass] [C,C]2 [C,C]2 | %2
 [F,C]2 [F,D]2 [E,C]2 [C,C]2 | [D,B,]2 [D,D]2 [G,D]4 | [C,C]2 [C,C][C,C] [C,C]2 [C,C]2 | %5
 [F,CF][F,A,F][G,F][G,B,F][K:bass] [C,C]2 [E,C]2 | [F,A,]2 [D,A,]2 [G,E]2 [G,,G,]2 | [C,G,]6 z2 | %8
 [G,B,]G, G,2[K:treble] [G,B,F]2 z2 | [C,C]C, C,2 E,2 z2 | %10
 [G,B,F][G,B,F] [G,B,F]>[G,CE] [G,DF][G,DF][G,CF][G,DF] | C,[C,C] [C,C]>[C,C] [C,C]4 | %12
 [F,CF][F,A,F] [F,A,F]2 [F,A,F]4 | [C,C][C,C] [C,C]2 [C,C]4 | [F,A,]2 [D,A,]2 [G,E]2 [G,,G,]2 | %15
 [C,G,]6 z2 |] %16
V:3
 x8 | x8 | x8 | x8 | x8 | x8 | x8 | x8 | z B, B,2 G2 z2 | z C C2 [CGc]2 z2 | x8 | x8 | x8 | x8 | %14
 x8 | x8 |] %16

